X:1
T:We’ll Be There
T:We’ll Be There
T:James Henry Fillmore, Sr.
T:Palmer Hartsough, 1900
T:Public Domain Courtesy of the Cyber Hymnal™
T:Public Domain Courtesy of the Cyber Hymnal™
C:James Henry Fillmore, Sr.
Z:Public Domain
Z:Courtesy of the Cyber Hymnal™
%%score ( 1 2 ) ( 3 4 )
L:1/8
Q:1/4=90
M:4/4
K:Bb
V:1 treble 
V:2 treble 
V:3 bass 
V:4 bass 
V:1
 [Fd]>[Ec] | [DB]>[DB] [DB]>[DB] [DB]>[DF] [DB]>[FA] | [EG]>[EG] [EG]>[EG] [=Ec]2 [Ec]>[GB] | %3
w: 1.~When the|Lord in glo- ry com- eth with His|hosts in bright ar- ray, And we|
w: 2.~We shall|see our bless- èd Sav- ior and shall|know Him in the skies As He|
w: 3.~We shall|see the count- less right- eous ga- thering|for their great re- ward, We shall|
 [FA]>[FA] [FA]>[FA] [EA]>[EA] [EG]>[EA] | [DB]>[CA] (3(Bc)[Dd] [DF]2 [Fd]>[Ec] | %5
w: wak- en at His sum- mons in that|new and glad- * some light, O the|
w: comes to take His child- ren thro’ the|gates of shin- * ing gold; We shall|
w: see the palms of vic- tory that the|saints in glad- * ness bring; We shall|
 [DB]>[DB] [DB]>[DB] [DB]>[DF] [DB]>[FA] | [EG]>[EG] [EG]>[EG] [=Ec]2 [Ec]>[GB] | %7
w: won- der, O the rap- ture as we|greet the heav’n- ly day, When the|
w: hear the shouts of joy that from un-|num- bered thou- sands rise, As His|
w: hear the might- y chor- us to the|Ho- ly One a- dored, As in|
 [FA]>[FA] [FA]>[FA] [EA]>[EA] [EG]>[EA] | [DB]6 ||"^Refrain" [B,D]>[CE] | [DF]6 [Fd]>[Ec] | %11
w: dawn e- ter- nal breaks up- on our|sight.|||
w: beau- ty and His glo- ry they be-|hold.|We’ll be|there, we’ll be|
w: robes of white they stand be- fore their|king.|||
 [DB]6 [DB]>[FA] | [EG]>[EG] [EG]>[EG] [=EG]>[EG] [Ed]>[Ec] | c6 [Af]>[ce] | [Bd]6 [Fd]>[_Fc] | %15
w: ||||
w: there, On the|re- sur- rec- tion morn- ing we’ll be|there; We’ll be|there, we’ll be|
w: ||||
 !fermata!B6 !fermata![EG]>[EG] | [DF]>[DF] [DB]>[Ge] [Fd]<[DB] [Ec]>[Ec] | !fermata!B6 |] %18
w: |||
w: there, On the|re- sur- rec- tion morn- ing we’ll be|there.|
w: |||
V:2
 x2 | x8 | x8 | x8 | x2 D2 x4 | x8 | x8 | x8 | x6 || x2 | x8 | x8 | x8 | (F2 F>F F2) x2 | x8 | %15
 (G2 G>G G2) x2 | x8 | (D2 E>E D2) |] %18
V:3
 [B,,B,]>[B,,B,] | [B,,F,]>[B,,F,] [B,,F,]>[B,,F,] [B,,F,]>[B,,B,] [B,,B,]>[D,B,] | %2
w: ~ ~|~ ~ ~ ~ ~ ~ ~ ~|
 [E,B,]>[E,B,] [E,B,]>[E,G,] [C,G,]2 [C,G,]>[C,C] | %3
w: ~ ~ ~ ~ ~ ~ ~|
 [F,C]>[F,C] [F,C]>[F,C] [F,C]>[F,C] [F,C]>[F,C] | %4
w: ~ ~ ~ ~ ~ ~ ~ ~|
 [B,,B,]>[B,,B,] [B,,B,]>[B,,B,] [B,,B,]2 [B,,B,]>[B,,B,] | %5
w: ~ ~ ~ ~ ~ ~ ~|
 [B,,F,]>[B,,F,] [B,,F,]>[B,,F,] [B,,F,]>[B,,B,] [B,,B,]>[D,B,] | %6
w: ~ ~ ~ ~ ~ ~ ~ ~|
 [E,B,]>[E,B,] [E,B,]>[E,G,] [C,G,]2 [C,G,]>[C,C] | %7
w: ~ ~ ~ ~ ~ ~ ~|
 [F,C]>[F,C] [F,C]>[F,C] [F,C]>[F,C] [F,C]>[F,C] | [B,,B,]6 || z2 | %10
w: ~ ~ ~ ~ ~ ~ ~ ~|~||
 z2 [B,,B,]>[B,,B,] [B,,B,]2 z2 | z2 [B,,B,]>[B,,B,] [B,,B,]2 [B,,B,]>[D,B,] | %12
w: We’ll be there,|we’ll be there, ~ ~|
 [E,B,]>[E,B,] [E,B,]>[E,B,] [C,C]>[C,C] [C,G,]>[C,B,] | [F,A,]2 [F,A,]>[F,A,] [F,A,]2 z2 | %14
w: ~ ~ ~ ~ ~ ~ ~ ~|~ We’ll be there,|
 z2 [B,F]>[B,F] [B,F]2 B,>[A,C] | [G,D]2 [G,D]>[G,D] !fermata![C,E]2 [E,B,]>[E,B,] | %16
w: we’ll be there, ~ ~|~ ~ ~ ~ ~ ~|
 [F,B,]>[F,B,] [F,B,]>[F,B,] [F,B,]<[F,B,] [F,A,]>[F,A,] | B,2 G,>G, !fermata!F,2 |] %18
w: ~ ~ ~ ~ ~ ~ ~ ~|~ we’ll be there.|
V:4
 x2 | x8 | x8 | x8 | x8 | x8 | x8 | x8 | x6 || x2 | x8 | x8 | x8 | x8 | x6 B,3/2 x/ | x8 | x8 | %17
 B,,6 |] %18

